site/images/massage.svg

<svg enable-background="new 0 0 36.1 11" fill="#fff" viewBox="0 0 36.1 11" xmlns="http://www.w3.org/2000/svg"><path d="m0 7.7v-5.9h2.1v4.1l-1.4 1.8z"/><path d="m6.2 10.6h-2.1v-8.8h2.1z"/><path d="m11.6 1.7c1.2 0 2.1.4 2.7 1.2s1 1.9 1 3.3-.3 2.5-1 3.3-1.6 1.2-2.7 1.2-2.1-.4-2.7-1.2-1-1.9-1-3.3c0-.6.1-1.1.3-1.6s.5-.9.8-1.2v0l-.9.1v-1.6c1-.2 2.2-.2 3.5-.2zm-1.5 4.5c0 1.9.5 2.9 1.6 2.9s1.6-1 1.6-2.9-.5-2.9-1.6-2.9h-.8c-.6.8-.8 1.7-.8 2.9z"/><path d="m17 7.7v-5.9h2.1v4.1l-1.4 1.8z"/><path d="m24 5.8l.5 2.8c.4-.2.7-.6.9-1s .3-1 .4-1.7l.4-4.1h2.1l-.3 3.8c-.1.8-.2 1.5-.4 2-.7 1.6-2 2.6-4.1 3l-3 .4v-1.6l2.2-.3-1.9-7.3h2.1z"/><path d="m31.5 1.8h4.6v1.4l-1.2 4.2-.7 3.3h-2l .7-3.3 1.1-4h-4.6v-3.4h2.1z"/></svg>

<svg version="1.1" id="Layer_1" xmlns="http://www.w3.org/2000/svg" xmlns:xlink="http://www.w3.org/1999/xlink" x="0px" y="0px"
	 viewBox="0 0 36.1 11" fill="#fff" style="enable-background:new 0 0 36.1 11;" xml:space="preserve">
<g>
	<path d="M0,7.7V1.8h2.1v4.1L0.7,7.7H0z"/>
	<path d="M6.2,10.6H4.1V1.8h2.1V10.6z"/>
	<path d="M11.6,1.7c1.2,0,2.1,0.4,2.7,1.2s1,1.9,1,3.3s-0.3,2.5-1,3.3s-1.6,1.2-2.7,1.2s-2.1-0.4-2.7-1.2s-1-1.9-1-3.3
		c0-0.6,0.1-1.1,0.3-1.6S8.7,3.7,9,3.4V3.4L8.1,3.5V1.9C9.1,1.7,10.3,1.7,11.6,1.7z M10.1,6.2c0,1.9,0.5,2.9,1.6,2.9s1.6-1,1.6-2.9
		s-0.5-2.9-1.6-2.9l-0.8,0C10.3,4.1,10.1,5,10.1,6.2z"/>
	<path d="M17,7.7V1.8h2.1v4.1l-1.4,1.8H17z"/>
	<path d="M24,5.8l0.5,2.8c0.4-0.2,0.7-0.6,0.9-1s0.3-1,0.4-1.7l0.4-4.1h2.1l-0.3,3.8c-0.1,0.8-0.2,1.5-0.4,2c-0.7,1.6-2,2.6-4.1,3
		L20.5,11V9.4l2.2-0.3l-1.9-7.3h2.1L24,5.8z"/>
	<path d="M31.5,1.8h4.6v1.4l-1.2,4.2l-0.7,3.3h-2l0.7-3.3l1.1-4h-4.6V0h2.1V1.8z"/>
</g>
</svg>
